packages/kaspersky-hexa-ui-icons/src/iconsSVGs/16x12/FlagLk.svg

<svg width="16" height="12" viewBox="0 0 16 12" fill="none" xmlns="http://www.w3.org/2000/svg">
<g clip-path="url(#clip0_41816_3047)">
<rect width="16" height="12" rx="2" fill="white"/>
<mask id="mask0_41816_3047" style="mask-type:luminance" maskUnits="userSpaceOnUse" x="0" y="0" width="16" height="12">
<rect width="16" height="12" rx="2" fill="white"/>
</mask>
<g mask="url(#mask0_41816_3047)">
<rect width="16" height="12" fill="#FFBF19"/>
<path fill-rule="evenodd" clip-rule="evenodd" d="M6.09521 0.800003H13.9047C14.6411 0.800003 15.2381 1.39696 15.2381 2.13334V9.86667C15.2381 10.603 14.6411 11.2 13.9047 11.2H6.09521V0.800003Z" fill="#A52531"/>
<path d="M0.761963 2.13334C0.761963 1.39696 1.35892 0.800003 2.0953 0.800003H3.04768V11.2H2.0953C1.35892 11.2 0.761963 10.6031 0.761963 9.86667V2.13334Z" fill="#03664F"/>
<rect x="3.04761" y="0.800003" width="2.28571" height="10.4" rx="0.666667" fill="#FF6816"/>
<path d="M7.23828 9.60027C7.44849 9.60037 7.61897 9.77898 7.61914 9.99968C7.61914 10.2205 7.44859 10.4 7.23828 10.4001C7.02789 10.4001 6.85742 10.2206 6.85742 9.99968C6.85759 9.77892 7.02799 9.60027 7.23828 9.60027ZM14.0957 9.60027C14.3058 9.60053 14.4764 9.77908 14.4766 9.99968C14.4766 10.2204 14.3059 10.3998 14.0957 10.4001C13.8853 10.4001 13.7139 10.2206 13.7139 9.99968C13.714 9.77892 13.8854 9.60027 14.0957 9.60027ZM7.23828 1.60027C7.44849 1.60037 7.61897 1.77898 7.61914 1.99968C7.61914 2.22053 7.44859 2.39996 7.23828 2.40007C7.02789 2.40007 6.85742 2.22059 6.85742 1.99968C6.85759 1.77892 7.02799 1.60027 7.23828 1.60027ZM14.0957 1.60027C14.3058 1.60053 14.4764 1.77908 14.4766 1.99968C14.4766 2.22043 14.3059 2.39981 14.0957 2.40007C13.8853 2.40007 13.7139 2.22059 13.7139 1.99968C13.714 1.77892 13.8854 1.60027 14.0957 1.60027Z" fill="#FFBF18"/>
<path fill-rule="evenodd" clip-rule="evenodd" d="M9.14281 7.52561C9.14281 7.34578 8.99703 7.19999 8.8172 7.19999C8.78057 7.19999 8.74443 7.19393 8.71015 7.18104C8.48714 7.09724 7.619 6.74862 7.619 6.39999C7.619 6.24192 7.6785 6.08384 7.75047 5.95045C7.87509 5.71947 7.93545 5.44413 7.85094 5.19566C7.72518 4.8259 7.57245 4.29326 7.619 3.99999C7.62402 3.96837 7.63169 3.93743 7.64164 3.90724C7.79429 3.4439 8.38091 3.7593 8.38091 4.24713V5.21735C8.38091 5.45263 8.51139 5.66849 8.7197 5.77786L8.96528 5.90679C9.07035 5.96195 9.19926 5.94073 9.2811 5.8548C9.40275 5.72706 9.3684 5.51842 9.21222 5.43643L8.76186 5.19999V4.79999C8.95807 4.79999 9.0229 4.53704 8.84918 4.44583L8.76186 4.39999V3.99999H9.24758C9.42394 3.99999 9.59261 3.92771 9.71424 3.79999C9.83588 3.67228 10.0045 3.59999 10.1809 3.59999H10.2457C10.5028 3.59999 10.737 3.74788 10.8476 3.98004L10.9345 4.16243C11.0071 4.31508 11.0191 4.48964 10.968 4.65078L10.9423 4.73161C10.8058 5.16149 11.1267 5.59999 11.5777 5.59999H12.4364C12.5226 5.59999 12.605 5.56465 12.6645 5.50222C12.8088 5.35071 12.7681 5.10324 12.5828 5.00599L12.31 4.86276C12.2315 4.82153 12.1441 4.79999 12.0554 4.79999H12C11.6844 4.79999 11.4285 4.54416 11.4285 4.22856C11.4285 4.08183 11.485 3.94073 11.5862 3.83448L11.8095 3.59999V4.01904C11.8095 4.22943 11.98 4.39999 12.1904 4.39999H12.5314C12.7885 4.39999 13.0228 4.54788 13.1333 4.78004L13.284 5.09642C13.3166 5.16497 13.3374 5.2382 13.3435 5.31387C13.3623 5.54523 13.395 6.07576 13.3333 6.39999C13.2883 6.63619 13.1751 6.8576 13.0837 7.00734C13.005 7.13633 12.9523 7.28229 12.9523 7.4334V8.50511C12.9523 8.66797 12.8203 8.79999 12.6575 8.79999C12.4407 8.79999 12.298 8.57402 12.3912 8.37833L12.5344 8.0777C12.5578 8.02854 12.5578 7.97144 12.5344 7.92228L12.5177 7.8872C12.4389 7.72173 12.1904 7.77787 12.1904 7.96114C12.1904 7.98672 12.1847 8.01198 12.1737 8.03507L11.9028 8.60392C11.8458 8.7237 11.725 8.79999 11.5923 8.79999C11.3395 8.79999 11.1731 8.53642 11.2818 8.30817L11.381 8.09987C11.4123 8.03411 11.4285 7.9622 11.4285 7.88937V7.85255C11.4285 7.49215 11.1364 7.19999 10.776 7.19999H10.5573C10.1969 7.19999 9.90472 7.49215 9.90472 7.85255C9.90472 7.94962 9.88306 8.04547 9.84133 8.13311L9.61713 8.60392C9.5601 8.7237 9.43926 8.79999 9.3066 8.79999C9.0538 8.79999 8.88737 8.53642 8.99606 8.30817L9.09525 8.09987C9.12657 8.03411 9.14281 7.9622 9.14281 7.88937V7.52561Z" fill="#FFBF18"/>
</g>
</g>
<defs>
<clipPath id="clip0_41816_3047">
<rect width="16" height="12" fill="white"/>
</clipPath>
</defs>
</svg>

<svg xmlns="http://www.w3.org/2000/svg" width="16" height="12" fill="none" viewBox="0 0 16 12"><g clip-path="url(#a)"><rect width="16" height="12" fill="#fff" rx="2"/><mask id="b" width="16" height="12" x="0" y="0" maskUnits="userSpaceOnUse" style="mask-type:luminance"><rect width="16" height="12" fill="#fff" rx="2"/></mask><g mask="url(#b)"><path fill="#ffbf19" d="M0 0h16v12H0z"/><path fill="#a52531" fill-rule="evenodd" d="M6.0952.8h7.8095c.7364 0 1.3334.597 1.3334 1.3333v7.7334c0 .7363-.597 1.3333-1.3334 1.3333H6.0952z" clip-rule="evenodd"/><path fill="#03664f" d="M.762 2.1333C.762 1.397 1.359.8 2.0953.8h.9524v10.4h-.9524C1.3589 11.2.762 10.6031.762 9.8667z"/><rect width="2" height="10" x="3" y="1" fill="#ff6816" rx="1"/><path fill="#ffbf18" d="M7.2383 9.6003c.2102 0 .3807.1787.3808.3994 0 .2208-.1705.4003-.3808.4004s-.3809-.1795-.3809-.4004c.0002-.2208.1706-.3994.3809-.3994m6.8574 0c.2101.0002.3807.1788.3809.3994 0 .2207-.1707.4001-.3809.4004-.2104 0-.3818-.1795-.3818-.4004.0001-.2208.1715-.3994.3818-.3994m-6.8574-8c.2102 0 .3807.1787.3808.3994 0 .2208-.1705.4003-.3808.4004s-.3809-.1795-.3809-.4004c.0002-.2208.1706-.3994.3809-.3994m6.8574 0c.2101.0002.3807.1788.3809.3994 0 .2207-.1707.4001-.3809.4004-.2104 0-.3818-.1795-.3818-.4004.0001-.2208.1715-.3994.3818-.3994"/><path fill="#ffbf18" fill-rule="evenodd" d="M9.1428 7.5256A.3256.3256 0 0 0 8.8172 7.2a.3.3 0 0 1-.107-.019c-.223-.0838-1.0912-.4324-1.0912-.781 0-.158.0595-.3162.1315-.4496.1246-.231.185-.5063.1004-.7547C7.7252 4.8259 7.5724 4.2933 7.619 4a.6.6 0 0 1 .0226-.0928c.1527-.4633.7393-.1479.7393.34v.9701a.633.633 0 0 0 .3388.5606l.2456.1289a.2656.2656 0 0 0 .247-.4704L8.7618 5.2v-.4c.1962 0 .261-.263.0873-.3542L8.7619 4.4V4h.4857a.644.644 0 0 0 .4666-.2.644.644 0 0 1 .4667-.2h.0648a.667.667 0 0 1 .6019.38l.0869.1824a.667.667 0 0 1 .0335.4884l-.0257.0808c-.1365.4299.1844.8684.6354.8684h.8587a.315.315 0 0 0 .1464-.594l-.2728-.1432a.55.55 0 0 0-.2546-.0628H12a.5715.5715 0 0 1-.4138-.9655l.2233-.2345v.419a.381.381 0 0 0 .3809.381h.341a.667.667 0 0 1 .6019.38l.1507.3164a.62.62 0 0 1 .0595.2175c.0188.2313.0515.7619-.0102 1.086-.045.2363-.1582.4577-.2496.6074-.0787.129-.1314.275-.1314.4261v1.0717a.295.295 0 0 1-.2948.2949c-.2168 0-.3595-.226-.2663-.4217l.1432-.3006a.18.18 0 0 0 0-.1554l-.0167-.0351c-.0788-.1655-.3273-.1093-.3273.074a.17.17 0 0 1-.0167.0739l-.2709.5688a.344.344 0 0 1-.3105.196c-.2528 0-.4192-.2635-.3105-.4917l.0992-.2083a.49.49 0 0 0 .0475-.2105v-.0369A.6525.6525 0 0 0 10.776 7.2h-.2187a.6526.6526 0 0 0-.6526.6525.65.65 0 0 1-.0634.2806l-.2242.4708a.344.344 0 0 1-.3105.196c-.2528 0-.4192-.2635-.3105-.4917l.0991-.2083a.49.49 0 0 0 .0476-.2105z" clip-rule="evenodd"/></g></g><defs><clipPath id="a"><path fill="#fff" d="M0 0h16v12H0z"/></clipPath></defs></svg>
